!! 00012] TT[TB
!! Zh. Ch. S-0040, M-4569-70), SZ 115)
!!!OTL: Hama diao
!!!ARE: Asia, China,ÿYunnan, Songming
!! Ethnic Group: Han
!! II, 56, 1)
!!!SCT: C0622
!!!YEM: Copyright 1995, estate of Helmut Schaffrath.
**kern
*ICvox
*Ivox
!! Mixed meters:  2/4; 3/4
*M3/4
*k[f#c#g#]
*A:
{8b
16b
16cc#
4ee
=1
8ff#
16ff#
16aa
16ee
16ff#
16ee
16cc#
4b}
=2
*M2/4
{8b
16b
16cc#
4ee
=3
*M3/4
8ff#
8cc#
8ee
16ee
16cc#
4b}
=4
*M2/4
{16ff#
16aa
16ff#
16ee
8ff#
8cc#
=5
*M3/4
16.ff#
32ff#
16ff#
16ff#
16ee
16ff#
16ee
16b
16cc#
16b
16a
16f#}
=6
*M2/4
{16f#
16a
16f#
16a
4b
=7
8ee
16ff#
16aa
8ff#
16ee
16cc#
=8
16b
16cc#
16b
16a
4b}
=9
{8.ff#
16ff#
8cc#
8ee
=10
8b
16cc#
16ee
8b
16a
16f#
=11
*M3/4
8a
16b
16cc#
16b
16a
8f#
4e}
=12
*M2/4
{16f#
16a
16f#
16a
8.b
16cc#
=13
16a
16b
16a
16f#
8.ee
16ff#
=14
2ee}
==
!!!AGN: Wuge, Huadeng, Songming huadeng. Xinsuan youxi
!! Foto '87 4 1, moegl. nur cut 9) DASSELBE AUF KA 66;
!!    Vor- und Zwischenspiele weggelassen.
!!!ONB: ESAC (Essen Associative Code) Database: CHINA
!!!AMT: irregular
!!!AIN: vox
!!!EED: Helmut Schaffrath
!!!EEV: 1.0
*-
